asset/Kiadan,_Pelaga.svg

<svg width="100" height="100" viewBox="0 0 100 100" fill="none" xmlns="http://www.w3.org/2000/svg">
<g clip-path="url(#clip0_2568_2194)">
<path d="M77.3869 15.2218C83.8961 15.5856 88.798 21.5076 91.4316 27.5994C93.526 32.4441 94.7282 37.7613 94.393 43.0587C93.9532 50.0078 90.8596 56.6381 86.388 61.9059C81.0405 68.2056 73.2649 72.7992 65.136 72.5053C56.7645 72.2027 48.988 66.5111 45.4075 58.777C41.8269 51.0429 42.3025 41.6203 46.0389 33.9284C49.7752 26.2364 56.5576 20.2823 64.3063 16.9844C69.1337 14.9299 74.5642 13.8549 79.5933 15.26L77.3869 15.2218Z" fill="#009345"/>
<path d="M78.3258 16.2005C83.3864 16.6451 86.8489 21.1106 88.4 25.5828C90.1711 30.6894 90.3924 36.4934 89.67 41.8173C88.326 51.7216 82.5895 61.2759 73.1311 65.0749C70.8782 65.9798 68.5297 66.5508 66.2592 66.6607C63.8142 66.7789 61.9347 66.5499 59.6309 65.8494C58.4379 65.4867 57.6768 65.1834 56.7019 64.6809C56.1864 64.4151 55.6834 64.1257 55.1954 63.8122C54.9522 63.656 54.7126 63.4942 54.4774 63.3261C54.3768 63.2542 54.2765 63.1815 54.178 63.1067C53.8541 62.8607 54.3756 63.2694 54.0618 63.0111C52.1391 61.4285 50.8959 59.8045 49.8987 57.5093C47.797 52.6725 47.5256 47.1337 47.9059 41.912C48.2662 36.9654 49.6274 31.6938 51.7491 27.1602C52.8677 24.7698 54.197 22.4778 55.725 20.3256C57.1028 18.3849 58.795 16.2881 60.7217 14.8474C65.2036 11.4962 70.679 12.7832 75.5949 14.7876C76.8329 15.2924 78.0432 15.8676 79.2493 16.4439C80.4303 17.0081 81.8675 16.7698 82.567 15.574C83.1792 14.5273 82.8914 12.8082 81.6971 12.2563C75.9348 9.59332 69.2909 6.73711 62.8519 8.59301C56.9365 10.298 52.786 15.8785 49.7821 20.9401C43.7494 31.105 41.4535 43.941 44.3702 55.4767C45.83 61.2506 49.2835 66.1861 54.7024 68.841C59.7208 71.2999 65.5278 71.7635 70.9213 70.3646C82.3217 67.4075 90.481 57.2112 92.9743 46.0004C94.3199 39.9497 94.3306 33.4564 92.92 27.4135C91.5631 21.6011 88.1131 16.1664 82.2922 14.0666C81.0248 13.6093 79.6712 13.3881 78.3258 13.3687C76.4779 13.3422 76.5376 16.0435 78.3258 16.2005Z" fill="#0B3335"/>
<path d="M51.4118 61.8192C49.9199 58.922 50.4529 55.4949 51.9679 52.7199C53.668 49.6058 56.446 47.4593 59.3017 45.4583C62.303 43.3552 65.1667 41.2607 67.4294 38.3363C69.6168 35.5094 71.3644 32.3041 72.7195 29.0008C73.4974 27.1045 74.1201 25.1255 74.3753 23.0865C74.6155 21.1677 74.6334 18.7389 73.6575 17.0025L75.7801 16.0812C77.7629 19.6907 78.9956 23.6182 79.1872 27.7489C79.3749 31.795 78.8926 35.7116 77.552 39.5414C76.3749 42.9041 74.5442 46.1543 72.1522 48.8039C69.4341 51.8145 66.0214 53.8136 62.7892 56.195C61.9348 56.8245 61.1033 57.4864 60.3314 58.2157C60.2007 58.3392 60.0705 58.4638 59.9441 58.5916C60.2336 58.299 59.6717 58.8955 59.6757 58.8909C59.3781 59.226 59.0931 59.5727 58.8251 59.9319C58.1596 60.8239 58.0187 61.0763 57.5606 62.086C57.3796 62.4851 57.2582 62.9011 57.0996 63.3076C56.8697 63.8967 56.4955 64.3456 56.1618 64.8712C55.3547 66.1425 53.1791 65.8344 52.6695 64.4583C52.3005 63.4618 52.1034 62.5635 52.352 61.5136C52.5891 60.5123 52.8975 59.5788 53.3936 58.678C54.3394 56.9607 55.5343 55.5091 56.9396 54.1458C59.7021 51.4658 63.1729 49.682 66.1004 47.2047C66.4345 46.9221 66.7608 46.6307 67.0784 46.3297C67.2435 46.1733 67.4081 46.0159 67.567 45.8532C67.4828 45.9394 67.2895 46.154 67.6511 45.7572C68.2641 45.0845 68.857 44.4001 69.4023 43.6704C69.8648 43.0516 70.2975 42.4107 70.7008 41.7517C71.0709 41.1469 71.3169 40.6842 71.7246 39.8184C73.3001 36.472 74.0053 33.4403 74.2931 29.6738C74.4504 27.6162 74.4256 25.5376 74.2266 23.484C74.0072 21.219 73.9034 18.9606 73.5736 16.7038C73.3913 15.4559 75.3854 14.8035 75.7801 16.0812C76.343 17.9034 76.8383 19.5025 76.7836 21.4413C76.7326 23.2525 76.3256 25.0412 75.7754 26.7615C74.6822 30.1795 72.9943 33.493 71.0822 36.5228C69.1882 39.5237 66.8512 42.2492 64.0621 44.4529C61.2302 46.6902 57.93 48.4901 55.5253 51.2259C53.2362 53.8301 51.6339 57.665 53.3531 60.9767C53.9812 62.1866 52.0326 63.0248 51.4118 61.8192Z" fill="#0B3335"/>
<path d="M18.2475 38.113C12.9389 40.7054 11.0615 47.5965 11.1454 53.8435C11.2121 58.8117 12.2026 63.8813 14.4718 68.3965C17.4485 74.3193 22.5256 79.0362 28.2438 82.0803C35.0823 85.7206 43.3114 87.0207 50.0011 83.9236C56.8906 80.734 61.2593 73.0401 61.351 65.0261C61.4428 57.0121 57.5075 48.9387 51.4942 43.518C45.4809 38.0973 37.5719 35.2605 29.8517 35.084C25.0421 34.9741 20.0957 35.9315 16.4161 38.9172L18.2475 38.113Z" fill="#009345"/>
<path d="M13.7545 41.2064C8.24257 43.6352 5.47051 49.9014 5.56432 55.6707C5.6643 61.8189 7.91628 68.1239 10.9353 73.4278C16.8338 83.7906 27.8865 91.4858 40.1337 90.9759C45.9124 90.7354 51.5608 88.5927 55.7924 84.5953C60.2077 80.4242 62.3803 74.6051 61.8257 68.5615C60.7778 57.1414 54.2504 46.12 45.5274 38.846C43.3567 37.0358 41.0438 35.3907 38.5824 33.9988C35.6148 32.3206 32.4597 30.9193 29.0277 30.6287C22.9134 30.111 17.6431 33.9825 13.5325 38.0628C12.5258 39.062 11.5608 40.1019 10.6076 41.152C9.72768 42.1213 9.65005 43.6237 10.6076 44.5812C11.4914 45.465 13.1656 45.5661 14.0369 44.5812C15.8004 42.5877 17.6104 40.6228 19.657 38.9138C20.4797 38.2268 21.412 37.5603 22.4731 36.9467C23.6288 36.2783 24.3531 35.9531 25.6269 35.617C25.9203 35.5396 26.2172 35.4824 26.5131 35.416C26.4963 35.4197 26.9164 35.3445 26.7149 35.3753C26.4808 35.4112 27.0114 35.3431 27.0526 35.3395C27.7585 35.2768 28.4772 35.2692 29.1828 35.3425C30.4788 35.4772 31.8492 35.9178 33.0741 36.4289C35.4418 37.4169 37.6924 38.7917 39.7889 40.2616C47.6562 45.7778 53.6587 54.2803 56.2123 63.6031C56.9915 66.4481 57.4835 69.3554 57.2126 72.3118C57.1029 73.5084 56.7733 74.7005 56.3487 75.8219C56.3048 75.9375 56.2611 76.0534 56.2136 76.1676C56.3272 75.8951 56.1645 76.2698 56.1521 76.2957C56.0272 76.5557 55.9036 76.816 55.7693 77.0715C55.4814 77.6191 55.1636 78.1511 54.8181 78.6643C52.4037 82.2506 48.3162 84.9413 43.9919 86.0422C33.75 88.6498 23.0888 83.4415 16.8945 75.2121C13.6977 70.965 11.4058 66.0243 10.1347 60.8682C8.89992 55.8595 8.79466 49.8239 12.4761 45.7562C13.2617 44.8881 14.1505 44.2002 15.1837 43.6515C15.8588 43.293 16.0664 42.3551 15.6916 41.7144C15.2695 40.9928 14.457 40.8968 13.7545 41.2064Z" fill="#0B3335"/>
<path d="M15.6613 42.8947C14.5897 45.9722 15.5972 49.2909 17.4857 51.8265C19.605 54.672 22.6561 56.4084 25.7639 57.99C29.0301 59.6521 32.1588 61.3252 34.8086 63.904C37.3702 66.3968 39.5493 69.3259 41.3535 72.4069C42.3892 74.1757 43.2828 76.048 43.821 78.0312C44.3275 79.8974 44.6851 82.2998 43.9619 84.1558L46.1926 84.7708C47.6506 80.9193 48.3213 76.8579 47.9328 72.7411C47.5522 68.7086 46.5263 64.898 44.6628 61.2936C43.0265 58.1288 40.7589 55.1669 38.0195 52.8783C34.9067 50.2779 31.2477 48.7762 27.714 46.8707C26.7799 46.367 25.8638 45.828 24.9975 45.214C24.8508 45.11 24.7044 45.0049 24.5614 44.896C24.889 45.1452 24.2491 44.6333 24.2537 44.6373C23.9121 44.3471 23.5815 44.0437 23.2658 43.7255C22.482 42.9355 22.3071 42.7054 21.7122 41.7697C21.4771 41.3999 21.2987 41.005 21.0847 40.6247C20.7746 40.0735 20.3412 39.6815 19.9372 39.2078C18.9601 38.062 16.8491 38.6716 16.5372 40.1055C16.3113 41.1439 16.2418 42.0609 16.635 43.0657C17.0099 44.0238 17.4459 44.905 18.0633 45.7275C19.2402 47.2954 20.6265 48.5655 22.2088 49.7186C25.3193 51.9855 29.0057 53.2658 32.2512 55.3089C32.6215 55.542 32.9854 55.7849 33.3421 56.0384C33.5274 56.1702 33.7124 56.303 33.8925 56.4419C33.7971 56.3683 33.5756 56.1828 33.9892 56.5251C34.6904 57.1053 35.3732 57.7001 36.0153 58.3462C36.5599 58.8942 37.078 59.4682 37.5696 60.0642C38.0207 60.6112 38.3292 61.0349 38.854 61.8352C40.8824 64.928 42.0051 67.8312 42.8174 71.5202C43.2612 73.5356 43.5276 75.5971 43.6181 77.6585C43.7179 79.9318 43.9313 82.1825 43.9207 84.4633C43.9149 85.7245 45.9807 86.0912 46.1926 84.7708C46.4949 82.8878 46.7614 81.2351 46.4359 79.3231C46.1318 77.5369 45.4785 75.8228 44.6928 74.1964C43.1319 70.9651 40.9967 67.9206 38.6793 65.1883C36.3839 62.482 33.6883 60.1105 30.6181 58.319C27.501 56.5001 23.9813 55.18 21.2173 52.8078C18.5862 50.5497 16.4628 46.9769 17.7014 43.4571C18.1539 42.1712 16.1072 41.614 15.6613 42.8947Z" fill="#0B3335"/>
</g>
<defs>
<clipPath id="clip0_2568_2194">
<rect width="88.8867" height="83" fill="white" transform="translate(5.56203 8)"/>
</clipPath>
</defs>
</svg>

<svg xmlns="http://www.w3.org/2000/svg" width="100" height="100" fill="none" viewBox="0 0 100 100"><g clip-path="url(#a)"><path fill="#009345" d="M77.387 15.222c6.51.364 11.411 6.286 14.045 12.377 2.094 4.845 3.296 10.162 2.961 15.46-.44 6.949-3.533 13.58-8.005 18.847-5.348 6.3-13.123 10.893-21.252 10.6-8.371-.303-16.148-5.995-19.728-13.729s-3.105-17.157.63-24.849c3.737-7.692 10.52-13.646 18.268-16.944 4.828-2.054 10.258-3.13 15.287-1.724z"/><path fill="#0b3335" d="M78.326 16.2c5.06.445 8.523 4.91 10.074 9.383 1.771 5.106 1.992 10.91 1.27 16.234-1.344 9.905-7.08 19.459-16.539 23.258-2.253.905-4.601 1.476-6.872 1.586-2.445.118-4.324-.111-6.628-.812-1.193-.362-1.954-.666-2.93-1.168a18.3 18.3 0 0 1-2.523-1.574c-.324-.246.198.162-.116-.096-1.923-1.583-3.166-3.207-4.163-5.502-2.102-4.837-2.373-10.375-1.993-15.597.36-4.947 1.721-10.218 3.843-14.752a44 44 0 0 1 3.976-6.834c1.378-1.941 3.07-4.038 4.997-5.479 4.482-3.35 9.957-2.064 14.873-.06 1.238.505 2.448 1.08 3.654 1.657 1.181.564 2.619.326 3.318-.87.612-1.047.324-2.766-.87-3.318-5.762-2.663-12.406-5.519-18.845-3.663-5.915 1.705-10.066 7.286-13.07 12.347-6.033 10.165-8.328 23.001-5.412 34.537 1.46 5.774 4.913 10.71 10.332 13.364 5.019 2.459 10.826 2.922 16.22 1.524C82.321 67.408 90.48 57.21 92.973 46c1.346-6.05 1.357-12.544-.054-18.586-1.357-5.813-4.807-11.248-10.628-13.347a12.2 12.2 0 0 0-3.966-.698c-1.848-.027-1.788 2.675 0 2.832"/><path fill="#0b3335" d="M51.412 61.82c-1.492-2.898-.96-6.325.556-9.1 1.7-3.114 4.478-5.26 7.334-7.262 3.001-2.103 5.865-4.197 8.127-7.122 2.188-2.827 3.935-6.032 5.29-9.335.778-1.896 1.401-3.876 1.656-5.914.24-1.92.258-4.348-.718-6.084l2.123-.922c1.983 3.61 3.216 7.537 3.407 11.668.188 4.046-.294 7.963-1.635 11.792-1.177 3.363-3.008 6.613-5.4 9.263-2.718 3.01-6.13 5.01-9.363 7.391a26 26 0 0 0-2.458 2.02q-.196.186-.387.377c.29-.293-.272.303-.268.299a16 16 0 0 0-.85 1.04c-.666.893-.807 1.145-1.265 2.155-.181.4-.303.815-.461 1.222-.23.589-.605 1.038-.938 1.563-.807 1.272-2.983.963-3.492-.413-.37-.996-.567-1.895-.318-2.944.237-1.002.546-1.935 1.042-2.836.945-1.717 2.14-3.169 3.546-4.532 2.762-2.68 6.233-4.464 9.16-6.941a23 23 0 0 0 1.467-1.352c-.084.086-.277.301.084-.096a28 28 0 0 0 1.751-2.087q.694-.929 1.299-1.918c.37-.605.616-1.068 1.024-1.934 1.575-3.346 2.28-6.378 2.568-10.144a36 36 0 0 0-.066-6.19c-.22-2.265-.324-4.523-.653-6.78-.183-1.248 1.811-1.9 2.206-.623.563 1.822 1.058 3.422 1.004 5.36-.051 1.812-.458 3.6-1.009 5.32-1.093 3.419-2.78 6.732-4.693 9.762-1.894 3-4.23 5.726-7.02 7.93-2.832 2.237-6.132 4.037-8.537 6.773-2.289 2.604-3.891 6.439-2.172 9.75.628 1.21-1.32 2.049-1.941.843"/><path fill="#009345" d="M18.248 38.113c-5.31 2.592-7.187 9.484-7.103 15.73.067 4.969 1.058 10.038 3.327 14.554 2.976 5.922 8.054 10.64 13.772 13.683C35.082 85.72 43.31 87.02 50 83.924c6.89-3.19 11.258-10.884 11.35-18.898s-3.843-16.087-9.857-21.508-13.922-8.257-21.642-8.434c-4.81-.11-9.756.847-13.436 3.833z"/><path fill="#0b3335" d="M13.755 41.206c-5.512 2.43-8.284 8.695-8.19 14.465.1 6.148 2.351 12.453 5.37 17.757 5.899 10.363 16.952 18.058 29.199 17.548 5.778-.24 11.427-2.383 15.658-6.38 4.416-4.172 6.588-9.99 6.034-16.035-1.048-11.42-7.576-22.441-16.299-29.715-2.17-1.81-4.483-3.455-6.945-4.847-2.967-1.678-6.122-3.08-9.554-3.37-6.115-.518-11.385 3.354-15.495 7.434-1.007.999-1.972 2.039-2.925 3.089-.88.97-.958 2.472 0 3.43.883.883 2.558.984 3.429 0 1.763-1.994 3.573-3.96 5.62-5.668a20 20 0 0 1 2.816-1.967c1.156-.669 1.88-.994 3.154-1.33.293-.077.59-.135.886-.201-.017.004.403-.072.202-.04-.234.035.296-.033.338-.036.706-.063 1.424-.07 2.13.002 1.296.135 2.666.576 3.891 1.087 2.368.988 4.618 2.363 6.715 3.833 7.867 5.516 13.87 14.018 16.423 23.341.78 2.845 1.271 5.752 1 8.709-.11 1.196-.439 2.389-.863 3.51q-.065.173-.135.346c.113-.273-.05.102-.062.128-.125.26-.248.52-.383.775q-.432.823-.95 1.593c-2.415 3.587-6.503 6.277-10.827 7.378-10.242 2.608-20.903-2.6-27.097-10.83-3.197-4.247-5.49-9.188-6.76-14.344-1.235-5.009-1.34-11.044 2.341-15.112a9.8 9.8 0 0 1 2.708-2.105c.675-.358.882-1.296.508-1.937-.422-.721-1.235-.817-1.937-.508"/><path fill="#0b3335" d="M15.661 42.895c-1.071 3.077-.064 6.396 1.825 8.932 2.119 2.845 5.17 4.581 8.278 6.163 3.266 1.662 6.395 3.335 9.045 5.914 2.561 2.493 4.74 5.422 6.544 8.503 1.036 1.769 1.93 3.641 2.468 5.624.507 1.866.864 4.269.14 6.125l2.232.615c1.458-3.852 2.128-7.913 1.74-12.03-.38-4.032-1.407-7.843-3.27-11.447-1.636-3.165-3.904-6.127-6.643-8.416-3.113-2.6-6.772-4.102-10.306-6.007a26 26 0 0 1-2.716-1.657q-.221-.156-.437-.318c.328.25-.312-.263-.307-.259q-.514-.434-.988-.912c-.784-.79-.959-1.02-1.554-1.955-.235-.37-.413-.765-.627-1.145-.31-.551-.744-.944-1.148-1.417-.977-1.146-3.088-.536-3.4.898-.226 1.038-.295 1.955.098 2.96.375.958.81 1.839 1.428 2.661 1.177 1.568 2.564 2.839 4.146 3.992 3.11 2.267 6.797 3.547 10.042 5.59a23 23 0 0 1 1.642 1.133c-.096-.074-.317-.26.096.083.701.58 1.384 1.175 2.026 1.821a25 25 0 0 1 1.555 1.718c.45.547.76.97 1.284 1.771 2.028 3.093 3.151 5.996 3.963 9.685.444 2.016.71 4.077.801 6.139.1 2.273.313 4.523.303 6.804-.006 1.262 2.06 1.628 2.272.308.302-1.883.568-3.536.243-5.448-.304-1.786-.958-3.5-1.743-5.127-1.561-3.23-3.696-6.275-6.014-9.008-2.295-2.706-4.99-5.078-8.06-6.869-3.118-1.819-6.638-3.139-9.402-5.511-2.63-2.258-4.754-5.831-3.516-9.35.453-1.287-1.594-1.844-2.04-.563"/></g><defs><clipPath id="a"><path fill="#fff" d="M5.562 8h88.887v83H5.562z"/></clipPath></defs></svg>
